src/assets/Vector (1).svg

<svg width="128" height="128" viewBox="0 0 128 128" fill="none" xmlns="http://www.w3.org/2000/svg">
<path d="M60.0097 4.9738C62.2075 6.43105 65.8037 6.43105 67.9982 4.9738L73.8017 1.1178C75.9982 -0.341454 78.95 0.288296 80.3625 2.51555L84.0955 8.4028C85.5079 10.6288 88.7912 12.0905 91.3907 11.6508L98.2617 10.4865C100.862 10.0463 103.305 11.8195 103.688 14.4283L104.707 21.3115C105.094 23.9208 107.496 26.596 110.051 27.254L116.794 28.993C119.349 29.6535 120.858 32.2723 120.148 34.812L118.28 41.5038C117.571 44.0433 118.68 47.464 120.747 49.1038L126.22 53.4455C128.286 55.0853 128.6 58.0875 126.918 60.1208L122.475 65.4845C120.794 67.5158 120.419 71.091 121.639 73.4283L124.866 79.5973C126.087 81.9358 125.156 84.8083 122.794 85.9805L116.552 89.0788C114.19 90.2518 112.394 93.366 112.558 95.9978L112.99 102.946C113.157 105.577 111.134 107.824 108.497 107.936L101.539 108.231C98.9052 108.344 95.9977 110.458 95.0767 112.931L92.6562 119.452C91.7352 121.926 88.977 123.156 86.525 122.186L80.0425 119.623C77.592 118.652 74.0752 119.399 72.2295 121.284L67.361 126.257C65.5145 128.14 62.4957 128.14 60.648 126.259L55.7717 121.283C53.9247 119.4 50.408 118.653 47.956 119.624L41.4767 122.186C39.025 123.157 36.2665 121.927 35.3475 119.453L32.9212 112.932C32.0015 110.459 29.094 108.344 26.4585 108.231L19.503 107.937C16.8667 107.824 14.8462 105.577 15.0107 102.947L15.446 95.9983C15.6097 93.3673 13.8115 90.2523 11.4497 89.0793L5.2097 85.981C2.8482 84.8085 1.91445 81.9368 3.1362 79.5978L6.3632 73.4288C7.5842 71.0915 7.2087 67.5165 5.52545 65.487L1.0817 60.1163C-0.600296 58.0863 -0.285296 55.084 1.77995 53.4443L7.25445 49.1025C9.3197 47.4628 10.4302 44.044 9.7217 41.5033L7.8497 34.8088C7.1407 32.2693 8.6497 29.6523 11.2027 28.9958L17.9502 27.253C20.5032 26.5958 22.909 23.9205 23.2942 21.3113L24.3125 14.428C24.6985 11.8193 27.1407 10.046 29.7402 10.4863L36.612 11.6505C39.2122 12.0903 42.495 10.6285 43.9055 8.40255L47.6367 2.5153C49.0472 0.288046 52.001 -0.341704 54.1992 1.11755L60.0097 4.9738Z" fill="#61CFD0"/>
</svg>

<svg xmlns="http://www.w3.org/2000/svg" width="128" height="128" fill="none"><path fill="#61CFD0" d="M60.01 4.974c2.198 1.457 5.794 1.457 7.988 0l5.804-3.856a4.686 4.686 0 0 1 6.56 1.398l3.734 5.887c1.412 2.226 4.695 3.688 7.295 3.248l6.87-1.165a4.684 4.684 0 0 1 5.427 3.942l1.019 6.883c.387 2.61 2.789 5.285 5.344 5.943l6.743 1.739a4.7 4.7 0 0 1 3.354 5.819l-1.868 6.692c-.709 2.54.4 5.96 2.467 7.6l5.473 4.342a4.69 4.69 0 0 1 .698 6.675l-4.443 5.363c-1.681 2.032-2.056 5.607-.836 7.944l3.227 6.17a4.69 4.69 0 0 1-2.072 6.383l-6.242 3.098c-2.362 1.173-4.158 4.287-3.994 6.919l.432 6.948a4.694 4.694 0 0 1-4.493 4.99l-6.958.295c-2.634.113-5.541 2.227-6.462 4.7l-2.42 6.521a4.69 4.69 0 0 1-6.132 2.734l-6.483-2.563c-2.45-.971-5.967-.224-7.812 1.661l-4.869 4.973a4.697 4.697 0 0 1-6.713.002l-4.876-4.976c-1.847-1.883-5.364-2.63-7.816-1.659l-6.48 2.562a4.69 4.69 0 0 1-6.129-2.733l-2.426-6.521c-.92-2.473-3.827-4.588-6.462-4.701l-6.956-.294a4.697 4.697 0 0 1-4.492-4.99l.435-6.949c.164-2.63-1.634-5.746-3.996-6.919l-6.24-3.098a4.69 4.69 0 0 1-2.074-6.383l3.227-6.17c1.221-2.337.846-5.912-.838-7.941l-4.443-5.37a4.69 4.69 0 0 1 .698-6.673l5.474-4.342c2.066-1.64 3.176-5.058 2.468-7.599L7.85 34.81a4.69 4.69 0 0 1 3.353-5.813l6.747-1.743c2.553-.657 4.959-3.332 5.344-5.942l1.018-6.883a4.687 4.687 0 0 1 5.428-3.942l6.872 1.164c2.6.44 5.883-1.021 7.294-3.247l3.73-5.888A4.69 4.69 0 0 1 54.2 1.118z"/></svg>
